X:1
T:Title
%%score { ( 1 3 ) | 2 }
L:1/8
M:3/4
K:G
V:1 treble nm="Grand Piano"
V:3 treble 
V:2 bass 
V:1
 z2 z[Q:1/4=92] D DG | B3 B [Fc]F | G4 E2 | [B,D]3 [DG] [CF][B,G] | A3 D DG | B3 B [Fc]F | G4 E2 | %7
 D3 G FA |[M:15/16] [B,DG]3/2- [B,DG]3 [EB][GB]/-[GB]/[EB] |[M:3/4] [^DB]3 F GA | %10
 B3 [Fd] [Fd][Fd] | [Fd]3 B AG/G/ |[M:15/16] [Fd]3/2- [Fd]3 D[DG]/-[DG]/A |[M:3/4] B3 B AG | %14
[M:15/16] [Ge]3/2- [Ge]3 [Ge][Gd]/-[Gd]/B |[M:3/4] z2 z2 A2 |[M:9/16] [G,B,DG]4- [G,B,DG]/ |] %17
V:2
 z2 z [G,B,] [G,B,][G,B,] | [G,D]3 [G,D] [D,A,][D,CD] | [G,B,D]4 [C,G,C]2 | %3
 [G,,G,]3 [B,,D,] [A,,D,][G,,G,] | [D,F,D]3 [D,F,C] [G,B,][G,B,] | [G,D]3 [G,D] [D,A,][D,CD] | %6
 [G,B,D]4 [C,G,C]2 | [D,G,B,]3 [D,B,D] [D,A,D][D,CD] | %8
[M:15/16] [G,,G,]3/2- [G,,G,]3 [E,G,][E,B,]/-[E,B,]/[E,G,] | %9
[M:3/4] [B,,F,]3 [A,B,^D] [G,B,E][F,B,D] | [E,G,E]3 [D,A,] [D,A,][D,A,] | %11
 [D,A,]3 [G,D] [F,A,D].[E,A,^C] |[M:15/16] [D,A,]3/2- [D,A,]3 [D,F,][B,,G,]/-[B,,G,]/[D,F,D] | %13
[M:3/4][K:treble] [G,D]3 [G,DG][K:bass] [G,CD][G,B,D] | %14
[M:15/16] [C,C]3/2- [C,C]3 [C,C][D,B,]/-[D,B,]/[D,G,D] | %15
[M:3/4] [E,G,B,][C,G,C] [D,G,B,]2 .[D,F,D]2 |[M:9/16] G,,4- G,,/ |] %17
V:3
 x6 | x6 | x6 | x6 | x6 | x6 | x6 | x6 |[M:15/16] x15/2 |[M:3/4] x6 | x6 | x6 |[M:15/16] x15/2 | %13
[M:3/4] x6 |[M:15/16] x15/2 |[M:3/4] GE D2 z C |[M:9/16] x9/2 |] %17

